#define splash_width 112
#define splash_height 29
static const unsigned char splash_bits[] = {
  0x00, 0x00, 0x00, 0x00, 0x00, 0x00, 0x00, 0x00, 0x00, 0x00, 0x00, 0x00,
  0x00, 0x00, 0x00, 0x00, 0x00, 0x00, 0x38, 0x80, 0x03, 0x38, 0x00, 0x00,
  0x00, 0x00, 0x00, 0x00, 0x00, 0xf8, 0x0f, 0x00, 0x38, 0x80, 0x03, 0x38,
  0x00, 0x00, 0x3f, 0xe0, 0x0f, 0x00, 0x00, 0xf8, 0x1f, 0x00, 0x38, 0x80,
  0x03, 0x38, 0x00, 0x80, 0xff, 0xf0, 0x0f, 0x00, 0x00, 0x78, 0x3c, 0x00,
  0x38, 0x80, 0x03, 0x38, 0x00, 0xc0, 0xe3, 0x79, 0x08, 0x00, 0x00, 0x78,
  0x3c, 0x3e, 0x38, 0x87, 0x73, 0x38, 0xf8, 0xe0, 0xc1, 0x39, 0x00, 0x00,
  0x00, 0x78, 0x3c, 0xff, 0xf8, 0x9f, 0xff, 0x39, 0xfc, 0xe3, 0xc0, 0xf9,
  0x00, 0x00, 0x00, 0x78, 0xbc, 0xe3, 0x78, 0x9c, 0xc7, 0x39, 0x8e, 0xe3,
  0xc0, 0xf3, 0x07, 0x00, 0x00, 0xf8, 0x9f, 0xff, 0x79, 0x9c, 0xc7, 0x39,
  0xfe, 0xe7, 0xc0, 0xe3, 0x1f, 0x00, 0x00, 0xf8, 0x8f, 0xff, 0x39, 0x9c,
  0xc3, 0x39, 0xfe, 0xe7, 0xc0, 0x01, 0x1f, 0x00, 0x00, 0x78, 0x80, 0x03,
  0x78, 0x9c, 0xc7, 0x39, 0x0e, 0xe0, 0xc1, 0x01, 0x1c, 0x00, 0x00, 0x78,
  0x80, 0x87, 0x78, 0x9c, 0xc7, 0x39, 0x1e, 0xc2, 0xe3, 0x19, 0x1e, 0x00,
  0x00, 0x78, 0x00, 0xff, 0xf8, 0x9f, 0xff, 0x39, 0xfc, 0x83, 0xff, 0xf8,
  0x0f, 0x00, 0x00, 0x78, 0x00, 0x7e, 0x38, 0x87, 0x73, 0x38, 0xf8, 0x01,
  0x3f, 0xf0, 0x07, 0x00, 0x00, 0x00, 0x00, 0x00, 0x00, 0x00, 0x00, 0x00,
  0x00, 0x00, 0x00, 0x00, 0x00, 0x00, 0x00, 0x00, 0x00, 0x00, 0x00, 0x00,
  0x00, 0x00, 0x00, 0x00, 0x00, 0x00, 0x00, 0x00, 0x00, 0x00, 0x00, 0x00,
  0x00, 0x00, 0x00, 0x00, 0x00, 0x00, 0x00, 0x00, 0x00, 0x00, 0x00, 0x00,
  0x00, 0x00, 0x00, 0x00, 0x00, 0x00, 0x00, 0x00, 0x00, 0x00, 0x00, 0x00,
  0x00, 0x00, 0x00, 0x00, 0x00, 0x00, 0x00, 0x00, 0x00, 0x00, 0x00, 0x00,
  0x00, 0x00, 0x00, 0x00, 0x00, 0x00, 0x00, 0x00, 0x00, 0x00, 0x00, 0x00,
  0x00, 0x00, 0x00, 0x00, 0x00, 0x00, 0x00, 0x00, 0x00, 0x00, 0x00, 0x00,
  0x00, 0x40, 0xe4, 0x44, 0xce, 0x03, 0x00, 0x00, 0x00, 0x00, 0x00, 0x00,
  0x00, 0x00, 0x00, 0xc0, 0x16, 0x45, 0x51, 0x04, 0x00, 0x00, 0x00, 0x00,
  0x00, 0x00, 0x00, 0x00, 0x00, 0x40, 0x95, 0x55, 0x41, 0x04, 0x00, 0x00,
  0x00, 0x00, 0x00, 0x00, 0x00, 0x00, 0xfe, 0x43, 0x55, 0x55, 0xcf, 0x03,
  0x00, 0x00, 0x00, 0x00, 0x00, 0x00, 0x00, 0x00, 0x00, 0x40, 0x35, 0x55,
  0x41, 0x01, 0x00, 0x00, 0x00, 0x00, 0x00, 0x00, 0x00, 0x00, 0x00, 0x40,
  0x15, 0x6d, 0x51, 0x02, 0x00, 0x00, 0x00, 0x00, 0x00, 0x00, 0x00, 0x00,
  0x00, 0x40, 0xe5, 0x44, 0x4e, 0x04, 0x00, 0x00, 0x00, 0x00, 0x00, 0x00,
  0x00, 0x00, 0x00, 0x00, 0x00, 0x00, 0x00, 0x00, 0x00, 0x00, 0x00, 0x00,
  0x00, 0x00, 0x00, 0x00, 0x00, 0x00, 0x00, 0x00, 0x00, 0x00
};
